icons/bag-code.svg

<svg xmlns="http://www.w3.org/2000/svg" viewBox="0 0 24 24" fill="currentColor">
  <path d="M8.75 7c0-1.78579 1.4642-3.25 3.25-3.25.8718 0 1.6882.39887 2.2697.98034.5814.58148.9803 1.39782.9803 2.26966v.25h-6.5V7Zm-1.5.30946V7c0-2.61421 2.13579-4.75 4.75-4.75 1.3282 0 2.5118.60116 3.3303 1.41968C16.1488 4.48821 16.75 5.67184 16.75 7v.30946c2.2607.36187 4 2.33139 4 4.69054v6c0 2.1142-1.6358 3.75-3.75 3.75H7c-2.13037 0-3.75-1.7521-3.75-3.75v-6c0-2.35915 1.73934-4.32867 4-4.69054ZM8 8.75c-1.78579 0-3.25 1.4642-3.25 3.25v6c0 1.2021.98037 2.25 2.25 2.25h10c1.2858 0 2.25-.9642 2.25-2.25v-6c0-1.7858-1.4642-3.25-3.25-3.25H8Zm2.9301 4.1802c.2929-.2929.2929-.7677 0-1.0606-.2928-.2929-.7677-.2929-1.06061 0l-1.20002 1.2c-.27247.2725-.36967.6314-.36967.9303 0 .2989.0972.6579.36967.9303l1.20002 1.2c.29291.2929.76781.2929 1.06061 0 .2929-.2928.2929-.7677 0-1.0606l-1.06963-1.0697 1.06963-1.0697Zm3.1-1.0606c-.2929-.2929-.7678-.2929-1.0607 0-.2929.2929-.2929.7677 0 1.0606l1.0697 1.0697-1.0697 1.0697c-.2929.2929-.2929.7678 0 1.0606.2929.2929.7678.2929 1.0607 0l1.2-1.2c.2725-.2724.3697-.6314.3697-.9303 0-.2989-.0972-.6578-.3697-.9303l-1.2-1.2Z"/>
</svg>

<svg width="24" height="24" viewBox="0 0 24 24" fill="none" xmlns="http://www.w3.org/2000/svg">
<path fill-rule="evenodd" clip-rule="evenodd" d="M8.75 7C8.75 5.21421 10.2142 3.75 12 3.75C12.8718 3.75 13.6882 4.14887 14.2697 4.73034C14.8511 5.31182 15.25 6.12816 15.25 7V7.25H8.75V7ZM7.25 7.30946V7C7.25 4.38579 9.38579 2.25 12 2.25C13.3282 2.25 14.5118 2.85116 15.3303 3.66968C16.1488 4.48821 16.75 5.67184 16.75 7V7.30946C19.0107 7.67133 20.75 9.64085 20.75 12V18C20.75 20.1142 19.1142 21.75 17 21.75H7C4.86963 21.75 3.25 19.9979 3.25 18V12C3.25 9.64085 4.98934 7.67133 7.25 7.30946ZM8 8.75C6.21421 8.75 4.75 10.2142 4.75 12V18C4.75 19.2021 5.73037 20.25 7 20.25H17C18.2858 20.25 19.25 19.2858 19.25 18V12C19.25 10.2142 17.7858 8.75 16 8.75H8ZM10.9301 12.9302C11.223 12.6373 11.223 12.1625 10.9301 11.8696C10.6373 11.5767 10.1624 11.5767 9.86949 11.8696L8.66947 13.0696C8.397 13.3421 8.2998 13.701 8.2998 13.9999C8.2998 14.2988 8.397 14.6578 8.66947 14.9302L9.86949 16.1302C10.1624 16.4231 10.6373 16.4231 10.9301 16.1302C11.223 15.8374 11.223 15.3625 10.9301 15.0696L9.86047 13.9999L10.9301 12.9302ZM14.0301 11.8696C13.7372 11.5767 13.2623 11.5767 12.9694 11.8696C12.6765 12.1625 12.6765 12.6373 12.9694 12.9302L14.0391 13.9999L12.9694 15.0696C12.6765 15.3625 12.6765 15.8374 12.9694 16.1302C13.2623 16.4231 13.7372 16.4231 14.0301 16.1302L15.2301 14.9302C15.5026 14.6578 15.5998 14.2988 15.5998 13.9999C15.5998 13.701 15.5026 13.3421 15.2301 13.0696L14.0301 11.8696Z" fill="black"/>
</svg>
